!!!SOCIAL_FUNCTION:	songs used in the treatment of the sick
!!!PDT:	1929
!!!OTL: No_94_Song_of_a_Medicine_Woman_on_Seeing_that_a_Sick_Person_will_Die.krn
!!!REG: Southwest
!!!LANG: Non-Tone
!!!LING_GROUP: Uto-Aztecan
**kern
*staff1
*clefF4
*k[b-e-a-]
*M2/4
8E-\
=1
8E-\L
8E-\J
8.E-;\L
16A-\Jk
=2
8A-\L
8F\J
4E-\
=3
4E-\
4BB-/
=4||
*M3/4
8E-\L
[8E-\J
8E-\L]
8F\J
8F\L
8E-\J
=5||
*M2/4
8E-\L
8E-\J
4BB-/
=6
8E-\L
8E-\J
4E-\
=7
4E-\
8BB-/
8r
=8
8E-\L
8E-\J
[4E-\
=9
4E-\]
4BB-/
=10
8E-\L
8E-\J
4E-\
=11
8E-\L
8E-\J
4E-\
=12
4.r
8E-\
=13
8E-;\L
8B-\J
8B-\L
8A-\J
=14
8A-\L
8A-\J
4F\
=15
8.E-;\L
16E-\Jk
8E-\L
8A-\J
=16
8A-\L
8F\J
4E-\
=17
4E-\
4BB-/
=18||
*M3/4
8E-\L
[8E-\J
8E-\L]
8F\J
8F\L
8E-\J
=19||
*M2/4
8E-\L
8E-\J
4BB-/
=20
8E-\L
8E-\J
4E-\
=21
4E-\
8BB-/
8r
=22
8E-\L
8E-\J
[4E-\
=23
4E-\]
4BB-/
=24
8E-\L
8E-\J
4E-\
=25
8E-\L
8E-\J
8E-\
8r
*-
